static/card-icons/roadmap.svg

<svg viewBox="0 0 512 512" xmlns="http://www.w3.org/2000/svg"><path d="m105 271c-24.813 0-45 20.187-45 45s20.187 45 45 45 45-20.187 45-45-20.187-45-45-45zm0 60c-8.271 0-15-6.729-15-15s6.729-15 15-15 15 6.729 15 15-6.729 15-15 15z"/><path d="m437 331h-17.58c-6.192-17.458-22.865-30-42.42-30s-36.228 12.542-42.42 30h-32.58c-16.542 0-30-13.458-30-30s13.458-30 30-30h105c4.734 0 9.276-2.322 12.044-6.059l71.998-96.989c13.711-18.277 20.958-40.046 20.958-62.952 0-57.897-47.103-105-105-105s-105 47.103-105 105c0 22.892 7.238 44.648 20.933 62.919l54.251 73.081h-75.184c-33.084 0-60 26.916-60 60s26.916 60 60 60h32.58c6.192 17.458 22.865 30 42.42 30s36.228-12.542 42.42-30h17.58c24.813 0 45 20.187 45 45 0 24.935-20.607 46-45 46h-107.58c-6.192-17.458-22.865-30-42.42-30s-36.228 12.542-42.42 30h-109.764l54.226-73.048c13.711-18.277 20.958-40.046 20.958-62.952 0-57.897-47.103-105-105-105s-105 47.103-105 105c0 22.906 7.247 44.675 20.913 62.892l71.835 96.769c2.707 3.83 7.212 6.34 12.24 6.34.056 0 .111 0 .168-.001h139.424c6.192 17.458 22.865 30 42.42 30s36.228-12.542 42.42-30h107.58c20.037 0 38.914-8.022 53.153-22.588 14.088-14.413 21.847-33.382 21.847-53.412 0-41.355-33.645-75-75-75zm-89.999-180.99c-.015-.02-.029-.04-.045-.06-9.784-13.043-14.956-28.587-14.956-44.95 0-41.355 33.645-75 75-75s75 33.645 75 75c0 16.363-5.172 31.907-15.001 45.01l-59.999 80.824zm29.999 210.99c-8.271 0-15-6.729-15-15s6.729-15 15-15 15 6.729 15 15-6.729 15-15 15zm-272 80.834-60.044-80.884c-9.784-13.043-14.956-28.587-14.956-44.95 0-41.355 33.645-75 75-75s75 33.645 75 75c0 16.363-5.172 31.907-15.001 45.01zm182 40.166c-8.271 0-15-6.729-15-15s6.729-15 15-15 15 6.729 15 15-6.729 15-15 15z"/><path d="m407 60c-24.813 0-45 20.187-45 45s20.187 45 45 45 45-20.187 45-45-20.187-45-45-45zm0 60c-8.271 0-15-6.729-15-15s6.729-15 15-15 15 6.729 15 15-6.729 15-15 15z"/></svg>

<?xml version="1.0" encoding="iso-8859-1"?>
<!-- Generator: Adobe Illustrator 19.0.0, SVG Export Plug-In . SVG Version: 6.00 Build 0)  -->
<svg version="1.1" id="Capa_1" xmlns="http://www.w3.org/2000/svg" xmlns:xlink="http://www.w3.org/1999/xlink" x="0px" y="0px"
	 viewBox="0 0 512 512" style="enableBackground:new 0 0 512 512;" xml:space="preserve">
<g>
	<g>
		<path d="M105,271c-24.813,0-45,20.187-45,45s20.187,45,45,45s45-20.187,45-45S129.813,271,105,271z M105,331
			c-8.271,0-15-6.729-15-15s6.729-15,15-15s15,6.729,15,15S113.271,331,105,331z"/>
	</g>
</g>
<g>
	<g>
		<path d="M437,331h-17.58c-6.192-17.458-22.865-30-42.42-30c-19.555,0-36.228,12.542-42.42,30H302c-16.542,0-30-13.458-30-30
			s13.458-30,30-30h105c4.734,0,9.276-2.322,12.044-6.059l71.998-96.989C504.753,149.675,512,127.906,512,105
			C512,47.103,464.897,0,407,0c-57.897,0-105,47.103-105,105c0,22.892,7.238,44.648,20.933,62.919L377.184,241H302
			c-33.084,0-60,26.916-60,60s26.916,60,60,60h32.58c6.192,17.458,22.865,30,42.42,30s36.228-12.542,42.42-30H437
			c24.813,0,45,20.187,45,45c0,24.935-20.607,46-45,46H329.42c-6.192-17.458-22.865-30-42.42-30c-19.555,0-36.228,12.542-42.42,30
			H134.816l54.226-73.048C202.753,360.675,210,338.906,210,316c0-57.897-47.103-105-105-105C47.103,211,0,258.103,0,316
			c0,22.906,7.247,44.675,20.913,62.892l71.835,96.769c2.707,3.83,7.212,6.34,12.24,6.34c0.056,0,0.111,0,0.168-0.001H244.58
			c6.192,17.458,22.865,30,42.42,30s36.228-12.542,42.42-30H437c20.037,0,38.914-8.022,53.153-22.588
			C504.241,444.999,512,426.03,512,406C512,364.645,478.355,331,437,331z M347.001,150.01c-0.015-0.02-0.029-0.04-0.045-0.06
			C337.172,136.907,332,121.363,332,105c0-41.355,33.645-75,75-75c41.355,0,75,33.645,75,75c0,16.363-5.172,31.907-15.001,45.01
			L407,230.834L347.001,150.01z M377,361c-8.271,0-15-6.729-15-15s6.729-15,15-15s15,6.729,15,15S385.271,361,377,361z M105,441.834
			L44.956,360.95C35.172,347.907,30,332.363,30,316c0-41.355,33.645-75,75-75s75,33.645,75,75c0,16.363-5.172,31.907-15.001,45.01
			L105,441.834z M287,482c-8.271,0-15-6.729-15-15s6.729-15,15-15s15,6.729,15,15S295.271,482,287,482z"/>
	</g>
</g>
<g>
	<g>
		<path d="M407,60c-24.813,0-45,20.187-45,45s20.187,45,45,45s45-20.187,45-45S431.813,60,407,60z M407,120c-8.271,0-15-6.729-15-15
			s6.729-15,15-15s15,6.729,15,15S415.271,120,407,120z"/>
	</g>
</g>
<g>
</g>
<g>
</g>
<g>
</g>
<g>
</g>
<g>
</g>
<g>
</g>
<g>
</g>
<g>
</g>
<g>
</g>
<g>
</g>
<g>
</g>
<g>
</g>
<g>
</g>
<g>
</g>
<g>
</g>
</svg>
